X:1
T:Pange Lingua, 87.87.87
T:Pange Lingua, 87.87.87
T:Proper Sarum Melody
T:Public Domain Courtesy of the Cyber Hymnal™
C:Proper Sarum Melody
Z:Public Domain
Z:Courtesy of the Cyber Hymnal™
%%score ( 1 2 ) ( 3 4 )
L:1/8
Q:1/4=115
M:none
K:Bb
V:1 treble 
V:2 treble 
V:3 bass 
V:4 bass 
V:1
 [A,D]2 [A,D]2 | [B,D]2 [A,C]2 [DF]2 [DF]2 | ([DG]2 [FA]2 [FB]2) [FA]4 | %3
 (B2 c2) [DB]2 [FA]2 [EG]2 | ([FB]2 [FA]2) [=EG]2 F4 | [CF]2 [EG]2 | [FB]2 [FA]2 [DG]2 [DF]2 | %7
 (F2 G2) [DG]4 | ([EG]2 [B,B]2) [B,G]2 | ([DF]2 [CE]2) [B,D]2 | ([B,G]2 [CF]2) [B,D]2 | %11
 [A,C]4 [CF]2 [CF]2 | [CF]2 [B,D]2 [G,E]2 [B,F]2 | (F2 G2) [DG]4 | (G2 B2) [B,G]2 | (F2 G2) [DF]2 | %16
 ([CE]2 [B,D]2) [A,C]2 | [A,D]4 |] %18
V:2
 x4 | x8 | x10 | F4 x6 | x6 F4 | x4 | x8 | D4 x4 | x6 | x6 | x6 | x8 | x8 | B,4 x4 | E4 x2 | %15
 D4 x2 | x6 | x4 |] %18
V:3
 [D,F,]2 [D,F,]2 | [B,,F,]2 F,2 [D,A,]2 [D,A,]2 | ([G,B,]2 [F,C]2 [B,D]2) [B,D]4 | %3
 ([B,D]2 [F,A,]2) [G,B,]2 [D,D]2 [E,B,]2 | ([D,B,]2 [F,C]2) [C,C]2 [F,A,]4 | [F,A,]2 [E,B,]2 | %6
 [D,B,]2 [F,C]2 [G,B,]2 [D,A,]2 | B,4 [G,B,]4 | ([E,B,]2 [D,F,]2) [E,G,]2 | %9
 ([B,,B,]2 [C,G,]2) [G,,G,]2 | ([G,,D,]2 [A,,F,]2) [B,,F,]2 | [F,,F,]4 [F,,A,]2 [F,,A,]2 | %12
 [A,,F,]2 [B,,F,]2 [C,E,]2 [B,,D,]2 | D,4 [G,B,]4 | (B,2 G,2) [E,B,]2 | B,4 [B,,B,]2 | %16
 ([C,G,]2 [D,F,]2) F,2 | [D,F,]4 |] %18
V:4
 x4 | x2 F,2 x4 | x10 | x10 | x10 | x4 | x8 | (B,,2 G,,2) x4 | x6 | x6 | x6 | x8 | x8 | %13
 (B,,2 G,,2) x4 | E,4 x2 | (B,,2 G,,2) x2 | x4 F,2 | x4 |] %18

